src/assets/icons/user.svg

<svg width="32" height="32" viewBox="0 0 32 32" fill="none" xmlns="http://www.w3.org/2000/svg">
<rect width="32" height="32" rx="10" fill="white"/>
<path d="M16.39 15.556C19.0381 15.556 21.1843 13.4171 21.1843 10.778C21.1843 8.1389 19.0381 6 16.39 6C13.7418 6 11.5956 8.1389 11.5956 10.778C11.5956 13.4171 13.7418 15.556 16.39 15.556ZM19.746 16.7505H19.1205C18.289 17.1313 17.3638 17.3478 16.39 17.3478C15.4161 17.3478 14.4947 17.1313 13.6594 16.7505H13.0339C10.2547 16.7505 7.99988 18.9977 7.99988 21.7674V23.3203C7.99988 24.3095 8.80518 25.112 9.79775 25.112H22.9822C23.9747 25.112 24.78 24.3095 24.78 23.3203V21.7674C24.78 18.9977 22.5252 16.7505 19.746 16.7505Z" fill="#4FA1C1"/>
</svg>

<svg xmlns="http://www.w3.org/2000/svg" width="32" height="32" fill="none"><rect width="32" height="32" fill="#fff" rx="10"/><path fill="#4FA1C1" d="M16.39 15.556c2.648 0 4.794-2.139 4.794-4.778C21.184 8.138 19.038 6 16.39 6c-2.648 0-4.794 2.139-4.794 4.778 0 2.64 2.146 4.778 4.794 4.778Zm3.356 1.194h-.625a6.545 6.545 0 0 1-5.462 0h-.625C10.254 16.75 8 18.998 8 21.767v1.553c0 .99.805 1.792 1.798 1.792h13.184c.993 0 1.798-.802 1.798-1.792v-1.553c0-2.77-2.255-5.017-5.034-5.017Z"/></svg>
